src/assets/images/mute.svg

<?xml version="1.0"?>
<svg xmlns="http://www.w3.org/2000/svg" viewBox="0 0 512 512" width="512px" height="512px"><path d="m181 308.507812 90 67.492188v-240l-90 67.492188zm0 0" fill="#F14042"/><path d="m256 0c-140.609375 0-256 115.390625-256 256s115.390625 256 256 256 256-115.390625 256-256-115.390625-256-256-256zm45 436-139.988281-105h-70.011719v-150h70.011719l139.988281-105zm121.816406-126.972656-31.816406-31.816406-31.816406 31.816406-21.210938-21.210938 31.816406-31.816406-31.816406-31.816406 21.210938-21.210938 31.816406 31.816406 31.816406-31.816406 21.210938 21.210938-31.816406 31.816406 31.816406 31.816406zm0 0" fill="#F14042"/><path d="m121 211h30v90h-30zm0 0" fill="#F14042"/></svg>

<?xml version="1.0" encoding="UTF-8"?>
<svg width="512px" height="512px" viewBox="0 0 512 512" version="1.1" xmlns="http://www.w3.org/2000/svg" xmlns:xlink="http://www.w3.org/1999/xlink">
    <!-- Generator: Sketch 63.1 (92452) - https://sketch.com -->
    <title>mute</title>
    <desc>Created with Sketch.</desc>
    <g id="Website" stroke="none" stroke-width="1" fill="none" fill-rule="evenodd">
        <g id="Home" transform="translate(-385.000000, -1724.000000)">
            <g id="mute" transform="translate(385.000000, 1724.000000)">
                <circle id="Oval" fill="#F2F3F4" cx="256" cy="256" r="209"></circle>
                <polygon id="Path" fill="#F14042" fill-rule="nonzero" points="181 308.507812 271 376 271 136 181 203.492188"></polygon>
                <path d="M256,0 C115.390625,0 0,115.390625 0,256 C0,396.609375 115.390625,512 256,512 C396.609375,512 512,396.609375 512,256 C512,115.390625 396.609375,0 256,0 Z M301,436 L161.011719,331 L91,331 L91,181 L161.011719,181 L301,76 L301,436 Z M422.816406,309.027344 L391,277.210938 L359.183594,309.027344 L337.972656,287.816406 L369.789062,256 L337.972656,224.183594 L359.183594,202.972656 L391,234.789062 L422.816406,202.972656 L444.027344,224.183594 L412.210938,256 L444.027344,287.816406 L422.816406,309.027344 Z" id="Shape" fill="#F14042" fill-rule="nonzero"></path>
                <polygon id="Path" fill="#F14042" fill-rule="nonzero" points="121 211 151 211 151 301 121 301"></polygon>
            </g>
        </g>
    </g>
</svg>
